X: 100153
M: C|
L: 1/8
K: Bb
uF2 |\
|: z2 |\
vB,CDE FGAB | (cd)ef d2B2 | (de)cA B2(ga) | (bg)f=e f4 |\
(fd)bf (ed)gf | (ed)cB (AG)FE | (DF)BD (EG)ce | (dc)BA B2 :|


